src/gui/emoticons/cow.svg

<svg xmlns="http://www.w3.org/2000/svg" xmlns:xlink="http://www.w3.org/1999/xlink" width="16pt" height="16pt" version="1.1" viewBox="0 0 16 16"><defs><linearGradient id="linear0" x1="16.433" x2="16.433" y1="110.26" y2="-56.892" gradientUnits="userSpaceOnUse"><stop offset="0" style="stop-color:#e3e3e3;stop-opacity:1"/><stop offset=".138" style="stop-color:#e6e6e6;stop-opacity:1"/><stop offset=".256" style="stop-color:#f1f1f1;stop-opacity:1"/><stop offset=".348" style="stop-color:#fff;stop-opacity:1"/></linearGradient><linearGradient id="linear1" x1="111.57" x2="111.57" y1="110.26" y2="-56.892" gradientUnits="userSpaceOnUse"><stop offset="0" style="stop-color:#e3e3e3;stop-opacity:1"/><stop offset=".138" style="stop-color:#e6e6e6;stop-opacity:1"/><stop offset=".256" style="stop-color:#f1f1f1;stop-opacity:1"/><stop offset=".348" style="stop-color:#fff;stop-opacity:1"/></linearGradient><linearGradient id="linear2" x1="63.998" x2="63.998" y1="108.63" y2="-53.414" gradientTransform="matrix(0.125,0,0,0.125,0,0)" gradientUnits="userSpaceOnUse"><stop offset=".132" style="stop-color:#d4d4d4;stop-opacity:1"/><stop offset=".203" style="stop-color:#d7d7d7;stop-opacity:1"/><stop offset=".264" style="stop-color:#e2e2e2;stop-opacity:1"/><stop offset=".321" style="stop-color:#f3f3f3;stop-opacity:1"/><stop offset=".348" style="stop-color:#fff;stop-opacity:1"/></linearGradient><clipPath id="clip1"><path d="M 2 4 L 7 4 L 7 11 L 2 11 Z M 2 4"/></clipPath><clipPath id="clip2"><path d="M 8.375 1.75 L 7.554688 1.75 C 4.785156 1.75 2.515625 4.042969 2.515625 6.8125 L 2.890625 12.5 L 13.109375 12.5 L 13.449219 6.8125"/></clipPath><linearGradient id="linear3" x1="63" x2="63" y1="138.84" y2="18.645" gradientUnits="userSpaceOnUse"><stop offset="0" style="stop-color:#d69549;stop-opacity:1"/><stop offset=".113" style="stop-color:#d7974c;stop-opacity:1"/><stop offset=".21" style="stop-color:#db9e57;stop-opacity:1"/><stop offset=".301" style="stop-color:#e1a969;stop-opacity:1"/><stop offset=".348" style="stop-color:#e6b175;stop-opacity:1"/></linearGradient></defs><g id="surface1"><path style="fill-rule:nonzero;fill:url(#linear0);stroke-width:3;stroke-linecap:butt;stroke-linejoin:round;stroke:#b0b0b0;stroke-opacity:1;stroke-miterlimit:10" d="M 27 39.59375 C 27 39.59375 19.0625 35.71875 10.53125 44.21875 C 2 52.75 5.875 60.6875 5.875 60.6875 C 5.875 60.6875 13.8125 64.5625 22.34375 56.0625 C 30.875 47.53125 27 39.59375 27 39.59375 Z M 27 39.59375" transform="matrix(0.125,0,0,0.125,0,0)"/><path style="fill-rule:nonzero;fill:url(#linear1);stroke-width:3;stroke-linecap:butt;stroke-linejoin:round;stroke:#b0b0b0;stroke-opacity:1;stroke-miterlimit:10" d="M 122.125 60.6875 C 122.125 60.6875 126 52.75 117.46875 44.21875 C 108.96875 35.71875 101.03125 39.59375 101.03125 39.59375 C 101.03125 39.59375 97.15625 47.53125 105.65625 56.0625 C 114.1875 64.5625 122.125 60.6875 122.125 60.6875 Z M 122.125 60.6875" transform="matrix(0.125,0,0,0.125,0,0)"/><path style="fill-rule:nonzero;fill:#e6b175;fill-opacity:1;stroke-width:3;stroke-linecap:butt;stroke-linejoin:round;stroke:#c28640;stroke-opacity:1;stroke-miterlimit:10" d="M 35.53125 16.09375 C 32.375 10.65625 35.28125 3.125 29.84375 6.25 C 24.40625 9.40625 22.5625 16.34375 25.6875 21.78125 C 28.84375 27.21875 35.78125 29.09375 41.21875 25.9375 C 46.625 22.8125 38.65625 21.53125 35.53125 16.09375 Z M 35.53125 16.09375" transform="matrix(0.125,0,0,0.125,0,0)"/><path style="fill-rule:nonzero;fill:#e6b175;fill-opacity:1;stroke-width:3;stroke-linecap:butt;stroke-linejoin:round;stroke:#c28640;stroke-opacity:1;stroke-miterlimit:10" d="M 92.46875 16.09375 C 95.625 10.65625 92.71875 3.125 98.15625 6.25 C 103.59375 9.40625 105.4375 16.34375 102.3125 21.78125 C 99.15625 27.21875 92.21875 29.09375 86.78125 25.9375 C 81.375 22.8125 89.34375 21.53125 92.46875 16.09375 Z M 92.46875 16.09375" transform="matrix(0.125,0,0,0.125,0,0)"/><path style="stroke:none;fill-rule:nonzero;fill:url(#linear2)" d="M 3.066406 12.25 L 2.703125 6.738281 C 2.703125 4.074219 4.878906 1.875 7.554688 1.875 L 8.445312 1.875 C 11.121094 1.875 13.296875 4.074219 13.296875 6.75 L 12.933594 12.25 Z M 3.066406 12.25"/><path style="stroke:none;fill-rule:nonzero;fill:#b0b0b0;fill-opacity:1" d="M 8.445312 2.125 C 11.011719 2.125 13.101562 4.171875 13.109375 6.738281 L 12.757812 12 L 3.242188 12 L 2.890625 6.738281 C 2.898438 4.171875 4.988281 2.125 7.554688 2.125 L 8.5 2.125 M 8.445312 1.75 L 7.554688 1.75 C 4.78125 1.75 2.515625 3.980469 2.515625 6.75 L 2.890625 12.375 L 13.109375 12.375 L 13.484375 6.75 C 13.484375 3.980469 11.21875 1.75 8.445312 1.75 Z M 8.445312 1.75"/><g clip-path="url(#clip1)" clip-rule="nonzero"><g clip-path="url(#clip2)" clip-rule="nonzero"><path style="stroke:none;fill-rule:nonzero;fill:#c4c4c4;fill-opacity:1" d="M 7 7.296875 C 7 5.890625 5.859375 4.75 4.453125 4.75 L 4.421875 4.75 C 3.015625 4.75 1.875 5.890625 1.875 7.296875 L 1.875 7.578125 C 1.875 8.984375 3.015625 10.125 4.421875 10.125 L 4.453125 10.125 C 5.859375 10.125 7 8.984375 7 7.578125 Z M 7 7.296875"/></g></g><path style="stroke:none;fill-rule:nonzero;fill:#404040;fill-opacity:1" d="M 5.691406 7.265625 C 5.691406 6.578125 5.203125 6.023438 4.597656 6.023438 C 3.992188 6.023438 3.5 6.578125 3.5 7.265625 C 3.5 7.949219 3.992188 8.503906 4.597656 8.503906 C 5.203125 8.503906 5.691406 7.949219 5.691406 7.265625 Z M 5.691406 7.265625"/><path style="stroke:none;fill-rule:nonzero;fill:#404040;fill-opacity:1" d="M 12.5 7.265625 C 12.5 6.578125 12.007812 6.023438 11.402344 6.023438 C 10.796875 6.023438 10.308594 6.578125 10.308594 7.265625 C 10.308594 7.949219 10.796875 8.503906 11.402344 8.503906 C 12.007812 8.503906 12.5 7.949219 12.5 7.265625 Z M 12.5 7.265625"/><path style="fill-rule:nonzero;fill:url(#linear3);stroke-width:3;stroke-linecap:butt;stroke-linejoin:round;stroke:#c28640;stroke-opacity:1;stroke-miterlimit:10" d="M 103.5 100.4375 C 103.5 88.3125 93.6875 78.5 81.5625 78.5 L 44.4375 78.5 C 32.3125 78.5 22.5 88.3125 22.5 100.4375 L 22.5 100.5625 C 22.5 112.6875 32.3125 122.5 44.4375 122.5 L 81.5625 122.5 C 93.6875 122.5 103.5 112.6875 103.5 100.5625 Z M 103.5 100.4375" transform="matrix(0.125,0,0,0.125,0,0)"/><path style="stroke:none;fill-rule:nonzero;fill:#754c24;fill-opacity:1" d="M 6.507812 12.410156 C 6.507812 11.835938 6.128906 11.371094 5.660156 11.371094 C 5.191406 11.371094 4.8125 11.835938 4.8125 12.410156 C 4.8125 12.984375 5.191406 13.453125 5.660156 13.453125 C 6.128906 13.453125 6.507812 12.984375 6.507812 12.410156 Z M 6.507812 12.410156"/><path style="stroke:none;fill-rule:nonzero;fill:#754c24;fill-opacity:1" d="M 11.1875 12.410156 C 11.1875 11.835938 10.808594 11.371094 10.339844 11.371094 C 9.871094 11.371094 9.492188 11.835938 9.492188 12.410156 C 9.492188 12.984375 9.871094 13.453125 10.339844 13.453125 C 10.808594 13.453125 11.1875 12.984375 11.1875 12.410156 Z M 11.1875 12.410156"/></g></svg>

<svg xmlns="http://www.w3.org/2000/svg" width="16pt" height="16pt" viewBox="0 0 16 16"><defs><linearGradient id="a" x1="16.433" x2="16.433" y1="110.26" y2="-56.892" gradientUnits="userSpaceOnUse"><stop offset="0" style="stop-color:#e3e3e3;stop-opacity:1"/><stop offset=".138" style="stop-color:#e6e6e6;stop-opacity:1"/><stop offset=".256" style="stop-color:#f1f1f1;stop-opacity:1"/><stop offset=".348" style="stop-color:#fff;stop-opacity:1"/></linearGradient><linearGradient id="b" x1="111.57" x2="111.57" y1="110.26" y2="-56.892" gradientUnits="userSpaceOnUse"><stop offset="0" style="stop-color:#e3e3e3;stop-opacity:1"/><stop offset=".138" style="stop-color:#e6e6e6;stop-opacity:1"/><stop offset=".256" style="stop-color:#f1f1f1;stop-opacity:1"/><stop offset=".348" style="stop-color:#fff;stop-opacity:1"/></linearGradient><linearGradient id="c" x1="63.998" x2="63.998" y1="108.63" y2="-53.414" gradientTransform="scale(.125)" gradientUnits="userSpaceOnUse"><stop offset=".132" style="stop-color:#d4d4d4;stop-opacity:1"/><stop offset=".203" style="stop-color:#d7d7d7;stop-opacity:1"/><stop offset=".264" style="stop-color:#e2e2e2;stop-opacity:1"/><stop offset=".321" style="stop-color:#f3f3f3;stop-opacity:1"/><stop offset=".348" style="stop-color:#fff;stop-opacity:1"/></linearGradient><linearGradient id="f" x1="63" x2="63" y1="138.84" y2="18.645" gradientUnits="userSpaceOnUse"><stop offset="0" style="stop-color:#d69549;stop-opacity:1"/><stop offset=".113" style="stop-color:#d7974c;stop-opacity:1"/><stop offset=".21" style="stop-color:#db9e57;stop-opacity:1"/><stop offset=".301" style="stop-color:#e1a969;stop-opacity:1"/><stop offset=".348" style="stop-color:#e6b175;stop-opacity:1"/></linearGradient><clipPath id="d"><path d="M2 4h5v7H2Zm0 0"/></clipPath><clipPath id="e"><path d="M8.375 1.75h-.82c-2.77 0-5.04 2.293-5.04 5.063l.376 5.687h10.218l.34-5.687"/></clipPath></defs><path d="M27 39.594s-7.937-3.875-16.469 4.625C2 52.75 5.875 60.688 5.875 60.688s7.938 3.874 16.469-4.626C30.875 47.533 27 39.595 27 39.595Zm0 0" style="fill-rule:nonzero;fill:url(#a);stroke-width:3;stroke-linecap:butt;stroke-linejoin:round;stroke:#b0b0b0;stroke-opacity:1;stroke-miterlimit:10" transform="scale(.125)"/><path d="M122.125 60.688s3.875-7.938-4.656-16.47c-8.5-8.5-16.438-4.624-16.438-4.624s-3.875 7.937 4.625 16.469c8.531 8.5 16.469 4.624 16.469 4.624Zm0 0" style="fill-rule:nonzero;fill:url(#b);stroke-width:3;stroke-linecap:butt;stroke-linejoin:round;stroke:#b0b0b0;stroke-opacity:1;stroke-miterlimit:10" transform="scale(.125)"/><path d="M35.531 16.094c-3.156-5.438-.25-12.969-5.687-9.844-5.438 3.156-7.282 10.094-4.157 15.531 3.157 5.438 10.094 7.313 15.532 4.157 5.406-3.125-2.563-4.407-5.688-9.844ZM92.469 16.094c3.156-5.438.25-12.969 5.687-9.844 5.438 3.156 7.281 10.094 4.156 15.531-3.156 5.438-10.093 7.313-15.53 4.157-5.407-3.125 2.562-4.407 5.687-9.844Zm0 0" style="fill-rule:nonzero;fill:#e6b175;fill-opacity:1;stroke-width:3;stroke-linecap:butt;stroke-linejoin:round;stroke:#c28640;stroke-opacity:1;stroke-miterlimit:10" transform="scale(.125)"/><path d="m3.066 12.25-.363-5.512c0-2.664 2.176-4.863 4.852-4.863h.89c2.676 0 4.852 2.2 4.852 4.875l-.363 5.5Zm0 0" style="stroke:none;fill-rule:nonzero;fill:url(#c)"/><path d="M8.445 2.125c2.567 0 4.657 2.047 4.664 4.613L12.758 12H3.242l-.351-5.262c.007-2.566 2.097-4.613 4.664-4.613H8.5m-.055-.375h-.89c-2.774 0-5.04 2.23-5.04 5l.376 5.625h10.218l.375-5.625c0-2.77-2.265-5-5.039-5m0 0" style="stroke:none;fill-rule:nonzero;fill:#b0b0b0;fill-opacity:1"/><g clip-path="url(#d)"><g clip-path="url(#e)"><path d="M7 7.297A2.547 2.547 0 0 0 4.453 4.75h-.031a2.547 2.547 0 0 0-2.547 2.547v.281a2.547 2.547 0 0 0 2.547 2.547h.031A2.547 2.547 0 0 0 7 7.578Zm0 0" style="stroke:none;fill-rule:nonzero;fill:#c4c4c4;fill-opacity:1"/></g></g><path d="M5.691 7.266c0-.688-.488-1.243-1.093-1.243-.606 0-1.098.555-1.098 1.243 0 .683.492 1.238 1.098 1.238.605 0 1.093-.555 1.093-1.238M12.5 7.266c0-.688-.492-1.243-1.098-1.243-.605 0-1.093.555-1.093 1.243 0 .683.488 1.238 1.093 1.238.606 0 1.098-.555 1.098-1.238m0 0" style="stroke:none;fill-rule:nonzero;fill:#404040;fill-opacity:1"/><path d="M103.5 100.438c0-12.126-9.812-21.938-21.937-21.938H44.438c-12.126 0-21.938 9.813-21.938 21.938v.124c0 12.126 9.813 21.938 21.938 21.938h37.125c12.124 0 21.937-9.812 21.937-21.937Zm0 0" style="fill-rule:nonzero;fill:url(#f);stroke-width:3;stroke-linecap:butt;stroke-linejoin:round;stroke:#c28640;stroke-opacity:1;stroke-miterlimit:10" transform="scale(.125)"/><path d="M6.508 12.41c0-.574-.38-1.039-.848-1.039-.469 0-.848.465-.848 1.04 0 .573.38 1.042.848 1.042.469 0 .848-.469.848-1.043M11.188 12.41c0-.574-.38-1.039-.848-1.039-.469 0-.848.465-.848 1.04 0 .573.38 1.042.848 1.042.469 0 .848-.469.848-1.043m0 0" style="stroke:none;fill-rule:nonzero;fill:#754c24;fill-opacity:1"/></svg>
